T: Jenny Will You Marry Me?
M: 4/4
L: 1/8
K: Amaj
|: E2 EF ABcB | A~F3 dFAF | ~E3F ABcf |1 efec (3BcB AF :|2 efec (3BcB A2 ||| e2 ed cd e2 | ef{a}fe fgaf | efed cdec | ABcA B2 Ac || e2 ed cd e2 | ef{a}fe fgaf | e~a3 f2 ec | ABcA (3BcB AF ||
